svgs/light/vials.svg

<svg xmlns="http://www.w3.org/2000/svg" viewBox="0 0 512 512"><!-- Font Awesome Pro 6.0.0-alpha2 by @fontawesome - https://fontawesome.com License - https://fontawesome.com/license (Commercial License) --><path d="M176 96C167.156 96 160 103.156 160 112V256H64V112C64 103.156 56.844 96 48 96S32 103.156 32 112V400C32 444.125 67.875 480 112 480S192 444.125 192 400V112C192 103.156 184.844 96 176 96ZM160 400C160 426.469 138.469 448 112 448S64 426.469 64 400V288H160V400ZM464 96C455.156 96 448 103.156 448 112V256H352V112C352 103.156 344.844 96 336 96S320 103.156 320 112V400C320 444.125 355.875 480 400 480S480 444.125 480 400V112C480 103.156 472.844 96 464 96ZM448 400C448 426.469 426.469 448 400 448S352 426.469 352 400V288H448V400ZM208 32H16C7.156 32 0 39.156 0 48S7.156 64 16 64H208C216.844 64 224 56.844 224 48S216.844 32 208 32ZM496 32H304C295.156 32 288 39.156 288 48S295.156 64 304 64H496C504.844 64 512 56.844 512 48S504.844 32 496 32Z"/></svg>

<svg xmlns="http://www.w3.org/2000/svg" viewBox="0 0 512 512"><!--! Font Awesome Pro 6.3.0 by @fontawesome - https://fontawesome.com License - https://fontawesome.com/license (Commercial License) Copyright 2023 Fonticons, Inc. --><path d="M176 96C167.2 96 160 103.2 160 112V256H64V112C64 103.2 56.84 96 48 96S32 103.2 32 112v288C32 444.1 67.88 480 112 480S192 444.1 192 400v-288C192 103.2 184.8 96 176 96zM160 400C160 426.5 138.5 448 112 448S64 426.5 64 400V288h96V400zM464 96C455.2 96 448 103.2 448 112V256h-96V112C352 103.2 344.8 96 336 96S320 103.2 320 112v288c0 44.13 35.88 80 80 80s80-35.88 80-80v-288C480 103.2 472.8 96 464 96zM448 400c0 26.47-21.53 48-48 48S352 426.5 352 400V288h96V400zM208 32h-192C7.156 32 0 39.16 0 48S7.156 64 16 64h192C216.8 64 224 56.84 224 48S216.8 32 208 32zM496 32h-192C295.2 32 288 39.16 288 48S295.2 64 304 64h192C504.8 64 512 56.84 512 48S504.8 32 496 32z"/></svg>
